dist/icons/arrow-logo.svg

<svg width="71" height="81" viewBox="0 0 71 81" fill="none" xmlns="http://www.w3.org/2000/svg">
<rect y="35.165" width="49.7306" height="49.7306" transform="rotate(-45 0 35.165)" fill="#274163"/>
<path d="M39.7096 23.8499C39.9879 24.1487 44.7284 32.4137 44.9654 33.032C43.4917 33.8049 42.0077 34.5676 40.5031 35.3508C39.5653 33.7328 38.7306 32.1148 37.8031 30.5381C36.9374 31.0122 36.8138 32.0839 37.2466 32.8053C37.7825 33.7225 38.3081 34.65 38.844 35.5672C39.9673 37.5149 41.0906 39.4523 42.2139 41.4001C42.3478 41.6371 42.4818 41.8741 42.6261 42.1112C42.2654 42.2245 37.8237 42.2657 36.8859 42.1627C36.5665 41.6268 36.2367 41.06 35.9069 40.5035C35.0103 38.968 34.1241 37.4222 33.2172 35.8867C32.6091 34.8561 32.2175 33.7637 32.0836 32.5683C31.8981 31.0328 32.166 29.6003 33.0317 28.3121C33.7015 27.3125 34.5569 26.5087 35.639 25.9625C36.8859 25.3235 38.1329 24.6743 39.3798 24.025C39.4726 23.9735 39.5963 23.9117 39.7096 23.8499Z" fill="#C3B18D"/>
<path d="M34.1554 24.8488C33.8977 25.055 33.6401 25.2611 33.3825 25.4775C32.1767 26.4771 31.3317 27.7241 30.8267 29.1978C30.1053 31.331 30.3114 33.423 31.1977 35.4635C31.5172 36.1952 31.9603 36.8753 32.3622 37.5761C33.2073 39.0292 34.0626 40.4719 34.918 41.925C34.9592 41.9972 34.9695 42.0796 34.9901 42.162C34.5882 42.2445 29.9817 42.2651 29.116 42.193C28.9099 41.822 28.6729 41.4201 28.4564 41.0181C27.9515 40.101 27.4465 39.1941 26.9415 38.2769C26.2202 36.9578 25.7564 35.5562 25.5709 34.0516C25.4266 32.918 25.4988 31.7947 25.5606 30.6611C25.6018 29.9604 25.6946 29.2699 25.8492 28.5794C26.1377 27.2912 26.6221 26.0958 27.3022 24.9725C28.3534 23.2412 29.7446 21.8396 31.4141 20.706C31.4966 20.6442 31.5893 20.603 31.6718 20.5618C31.95 20.8297 33.7947 24.0141 34.1554 24.8488Z" fill="#C3B18D"/>
<path d="M25.9209 48.9752C26.869 47.2645 27.7965 45.5744 28.7446 43.874C33.6809 43.874 38.5966 43.874 43.5845 43.874C44.5738 45.5641 45.5837 47.2851 46.5834 49.0062C46.5628 49.0371 46.5525 49.0577 46.5422 49.068C46.5319 49.0783 46.5112 49.0989 46.5009 49.0989C39.7096 49.0989 32.908 49.1092 26.1167 49.1092C26.0652 49.1092 26.024 49.0783 25.9724 49.0577C25.9621 49.0474 25.9621 49.0268 25.9209 48.9752Z" fill="#C3B18D"/>
<path d="M36.3404 18.0273C37.2061 19.5216 38.0305 20.9335 38.8859 22.3866C37.608 23.0564 36.361 23.6954 35.0728 24.3652C34.5679 23.6954 34.2175 22.9328 33.7847 22.2217C33.3621 21.5209 32.9602 20.8098 32.5171 20.0472C33.795 19.3671 35.0419 18.7178 36.3404 18.0273Z" fill="#C3B18D"/>
<path d="M14.0659 59.3408L35.1648 80.0002L56.2637 59.3408" stroke="#274163"/>
</svg>

<svg width="71" height="81" fill="none" xmlns="http://www.w3.org/2000/svg">
    <path fill="#274163" d="M0 35.165 35.165 0 70.33 35.165 35.165 70.33z"/>
    <path d="M39.71 23.85c.278.299 5.018 8.564 5.255 9.182-1.473.773-2.957 1.536-4.462 2.319-.938-1.618-1.772-3.236-2.7-4.813-.866.474-.99 1.546-.556 2.267.535.917 1.061 1.845 1.597 2.762 1.123 1.948 2.247 3.885 3.37 5.833.134.237.268.474.412.711-.36.114-4.802.155-5.74.052-.32-.536-.65-1.103-.98-1.66-.896-1.535-1.782-3.08-2.689-4.616-.608-1.03-1-2.123-1.133-3.319-.186-1.535.082-2.968.948-4.256.67-1 1.525-1.803 2.607-2.35a646.82 646.82 0 0 0 3.74-1.937c.094-.051.217-.113.33-.175Z" fill="#C3B18D"/>
    <path d="M34.155 24.849c-.257.206-.515.412-.773.628a8.185 8.185 0 0 0-2.555 3.72c-.722 2.134-.516 4.226.37 6.267.32.731.763 1.411 1.165 2.112.845 1.453 1.7 2.896 2.556 4.349.041.072.051.155.072.237-.402.083-5.008.103-5.874.031-.206-.371-.443-.773-.66-1.175-.505-.917-1.01-1.824-1.514-2.741a11.708 11.708 0 0 1-1.371-4.225c-.144-1.134-.072-2.257-.01-3.39.04-.702.134-1.392.288-2.083a11.943 11.943 0 0 1 1.453-3.607c1.051-1.73 2.443-3.132 4.112-4.266.083-.062.175-.103.258-.144.278.268 2.123 3.452 2.483 4.287ZM25.92 48.975c.949-1.71 1.877-3.4 2.825-5.101h14.84c.989 1.69 1.999 3.411 2.998 5.132-.02.031-.03.052-.04.062-.011.01-.032.03-.042.03-6.791 0-13.593.011-20.384.011-.052 0-.093-.03-.145-.051-.01-.01-.01-.031-.051-.083ZM36.34 18.027c.866 1.495 1.69 2.906 2.546 4.36-1.278.67-2.525 1.308-3.813 1.978-.505-.67-.855-1.432-1.288-2.143-.423-.701-.825-1.412-1.268-2.175 1.278-.68 2.525-1.33 3.823-2.02Z" fill="#C3B18D"/>
    <path d="M14.066 59.34 35.165 80l21.099-20.66" stroke="#274163"/>
</svg>
